X:347
T:One-Legged Man
C:Buck White
N:Transcribed by Terry G Martin
R:bluegrass
L:1/8
Q:1/4=212
M:4/4
K:G
z8 | z8 |: "G"G,A, B,D GE DG | ED B,E DB, A,B, | G,A, B,D EF GA | Bd Bd "Em"e2 e2 | 
"G"G,A, B,D GE DG | ED B,E D2 eg | bg dg2B dB | "D"AF DF "G"G4 :|: "G"D2 DG BG BG | 
"D7"D2 DA cA cA | "G"D2 DG B2 A^c | "D"dA ^ce dA FE | "G"D2 DG BG BG |1 D2 DA c2 A^c | 
"G"dB ^ce dc B2 | "D"GB AF "G"G4 :|2 D2 DA c2 eg | "G"bg dg2B dB | "D"AF DF "G"G4 | 
G,A, B,D GE DG | ED B,A, G,4 | 


